kiosk-igrinskij/images/f0ed22c3da59f033ebdfa8a4fcc3bedb.svg

<svg fill="none" height="16" viewBox="0 0 10 16" width="10" xmlns="http://www.w3.org/2000/svg"><g fill="#f1e9dd"><path d="m9.42685 4.70312h-8.853705v.93555h.797435l-.575653 5.91963h3.723373v-.4823c-.82879-.2086-1.44283-.9425-1.44283-1.8133 0-.43103.26731-.98865.81725-1.70484.37282-.48559.74111-.86743.75654-.88354l.35074-.36255.35074.36255c.01555.01611.38372.39795.75654.88354.54994.71619.81725 1.27393.81725 1.70484 0 .8708-.61404 1.6047-1.44283 1.8133v.4823h3.72337l-.57565-5.91963h.79731v-.93555z"/><path d="m5.96114 9.26257c0-.28747-.45097-.96423-.96101-1.55945-.51005.59571-.96127 1.27283-.96127 1.55945 0 .51575.43115.93533.96114.93533s.96114-.41958.96114-.93533z"/><path d="m9.54088 12.4958h-9.081762c-.279736.2226-.459118.5604-.459118.9385v2.5657h10v-2.5657c0-.3781-.17938-.7159-.45912-.9385z"/><path d="m8.67433 3.76562c-.12369-.98352-.98673-1.74804-2.03041-1.74804h-.23106c.06786-.16736.10549-.34949.10549-.54004 0-.814698-.68115-1.47754-1.51835-1.47754s-1.51835.662842-1.51835 1.47754c0 .19067.03763.37268.10549.54004h-.23106c-1.04368 0-1.90672.76452-2.03041 1.74804z"/></g></svg>

<svg width="10" height="16" viewBox="0 0 10 16" fill="none" xmlns="http://www.w3.org/2000/svg">
<path d="M9.42685 4.70312H0.573145V5.63867H1.37058L0.794927 11.5583H4.5183V11.076C3.68951 10.8674 3.07547 10.1335 3.07547 9.2627C3.07547 8.83167 3.34278 8.27405 3.89272 7.55786C4.26554 7.07227 4.63383 6.69043 4.64926 6.67432L5 6.31177L5.35074 6.67432C5.36629 6.69043 5.73446 7.07227 6.10728 7.55786C6.65722 8.27405 6.92453 8.83179 6.92453 9.2627C6.92453 10.1335 6.31049 10.8674 5.4817 11.076V11.5583H9.20507L8.62942 5.63867H9.42673V4.70312H9.42685Z" fill="#F1E9DD"/>
<path d="M5.96114 9.26257C5.96114 8.9751 5.51017 8.29834 5.00013 7.70312C4.49008 8.29883 4.03886 8.97595 4.03886 9.26257C4.03886 9.77832 4.47001 10.1979 5 10.1979C5.52999 10.1979 5.96114 9.77832 5.96114 9.26257Z" fill="#F1E9DD"/>
<path d="M9.54088 12.4958H0.459118C0.179382 12.7184 0 13.0562 0 13.4343V16H10V13.4343C10 13.0562 9.82062 12.7184 9.54088 12.4958Z" fill="#F1E9DD"/>
<path d="M8.67433 3.76562C8.55064 2.7821 7.6876 2.01758 6.64392 2.01758H6.41286C6.48072 1.85022 6.51835 1.66809 6.51835 1.47754C6.51835 0.662842 5.8372 0 5 0C4.1628 0 3.48165 0.662842 3.48165 1.47754C3.48165 1.66821 3.51928 1.85022 3.58714 2.01758H3.35608C2.3124 2.01758 1.44936 2.7821 1.32567 3.76562H8.67433Z" fill="#F1E9DD"/>
</svg>
